X:80
T:Tam Bain's Lum
C:Joe Buchanan's Scottish Tome - Page 330.0
I:330 0
C:P.M. Gary Ramsay
R:Hornpipe
Z:Carl Allison
L:1/8
M:4/4
K:D
A>B | "D"d2 (f<a) A>B ((3ddd) | "A7"A>B e>e f>d (f>a) | \
"A"e2 (c>e) A>c ((3ccc) | "A7"A>c e>c a>g f>e | 
"D"d2 (f<a) A>B ((3ddd) | "D"A>B de f>d (f>a) | \
"A"A>c ((3ccc) A>c e>c | "A7"a>g f>e "D"d2 :|
"D"a2 f>d A>d ((3ddd) | "D"A>d f>d a>d (f>d) | \
"A"g2 e>c A>c ((3ccc) | "A7"A>c e>c g2 f>g |
"D"a2 f>d A>d ((3ddd) | "D"A>d f>d a>d ((3ddd) |\
"A"G>B ((3ccc) A>c e>c  | "A7"a>g f>e d2 :|
A>B | "D"((3ddd) d>e f>A A>e | f>e d>e f>A A>B |\
"A"((3ccc) e>c A>c | "A7"a>g f>e d2 A>B |
"D"((3ddd) d>e f>A A>e | "D"f>e d>e f>A A>B | \
"G"G>B ((3BBB) "A"A>c e>c  | "A7"a>g f>e "D"d2 :|
(d>B) | "D"A>d ((3ddd)  A>d ((3ddd) | "D"A>d f>d a>d (f>d) | \
"A"G>B ((3ccc) c>B A>c | A>c e>c "D"d2 d>B |
"D"A>d ((3ddd) A>d ((3ddd) | "G"G>B ((3ddd) g>f e>c | \
"A"A>c ((3ccc) "A"A>c e>c | "A7"a>g f>e "D"d2 :|

